X:1
T:"Swallow" Sloop of War -- Reel
R:reel
B:Ryan's Mammoth Collection
N: 366
Z: Contributed by Ray Davies,  ray:davies99.freeserve.co.uk
M:C|
L:1/8
K:D
v(FD)FA d2de | fdgf "4"eEEG | (FD)FA d2de | (fa)ef ud<vd ud2 |
v(FD)FA d2de | fdgf "4"eEEG | (FD)FA d2de | (fa)ef ud<vd ud2 |]
vfdfd afdf | egfe dBAg | fdfd afdf | (eg)fe d<d d2 |
vfdfd afdf | egfe dBAG | FDFA dfag | (fd)ef d<d d2 |]
